X: 132
T: Aynı Çatı Altında
C: Turhan Taşan
O: Turkey
F: http://compmusic.upf.edu/node/140
N: hicaz--fantezi--nimsofyan--ayni_cati--turhan_tasan
N: makam= hicaz
N: form= fantezi
N: usul= nimsofyan = 2/4
M: 2/4
L: 1/16
K: C _7/8B ^f ^c 
Q: 1/4=66
%%MIDI tuningsystem comma53
a2a2 a2a2  | a=bga fge2  | g2ga fgef  | \
w:  ARANAĞME  |   |   | 
d4 z4  | a2a2 a2a2  | 
w:   |  ARANAĞME  | 
a=bga fge2  | g2ga fgef  | d4 z4  | e2e=f d2de  | 
w:   |   |   |   | 
c2cd B2A2  | zd2c B2d2  | z2cB A4  | e2e=f d2de  | \
w:   |   |   |   | 
c2cd B2A2  | 
w:   | 
zd2c B2d2  | z2cB A4  | d3c Bdz2  | c2B2 .A4  | \
w:   |   |  Ay nı  ça tı   |  al tın da    | 
c3d e2g2  | 
w:  Aş kı mız  bir   | 
=fe3 d4  | d3c Bdz2  | c2B2 .A4  | c3d e2g2  | \
w:  ya lan mış    |  Ay nı  ça tı   |  al tın da    |  Aş kı mız  bir   | 
=fe3 d4  | ff3 d2e2  | 
w:  ya lan mış    |  Dö nüp  bak tım   | 
f2g2 .a4  | a3a gf3  | ef3 d4  | ff3 d2e2  | \
w:  ma zi ye    |  Pay la şa cak   |  ne  kal mış    |  Dö nüp  bak tım   | 
f2g2 .a4  | a3a gf3  | 
w:  ma zi ye    |  Pay la şa cak   | 
ef3 d4  | a2a2 a2a2  | =b2g2 f4  | a2a2 a2a2  | \
w:  ne  kal mış    |  Yıl lar  yor gun   |  ben  yor gun    |  Yıl lar  yor gun   | 
=b2g2 f4  | z2ef g2f2  | 
w:  ben  yor gun    |  Bo şa  geç miş   | 
z2ef d4  | z2ef g2f2  | z2ef d4  | e3d c2e2  | \
w:  se ne ler    |  Bo şa  geç miş   |  se ne ler    |  Ben de  hic ran   | 
z2dc e4  | 
w:  ya ra sı    | 
d3c B2d2  | z2cB A4  | e3d c2e2  | z2dc e4  | \
w:  Ben de  bit mez   |  çi le ler    |  Ben de  hic ran   |  ya ra sı    | 
d3c B2d2  | z2cB A4  | 
w:  Ben de  bit mez   |  çi le ler    | 
d3c B3d  | c2B2 A4  | z2cd e2g2  | =f2e2 d4  | \
w:  Göz le rin de   |  kin  nef ret    |  Ba na  sev gin   |  hiç  yok muş    | 
d3c B3d  | c2B2 A4  | 
w:  Göz le rin de   |  kin  nef ret    | 
z2cd e2g2  | =f2e2 d4  | ff3 d2e2  | f3g a4  | \
w:  Ba na  sev gin   |  hiç  yok muş    |  Be nim  kal bim   |  boş  ye re    | 
z2aa g2f2  | ef3 d4  | 
w:  Sa na  sev giy  |  le  dol muş    | 
ff3 d2e2  | f3g a4  | z2aa g2f2  | ef3 d4  | \
w:  Be nim  kal bim   |  boş  ye re    |  Sa na  sev giy  |  le  dol muş    | 
a2a2 a2a2  | =b2g2 f4  | 
w:  Yıl lar  yor gun   |  ben  yor gun    | 
a2a2 a2a2  | =b2g2 f4  | z2ef g2f2  | z2ef d4  | \
w:  Yıl lar  yor gun   |  ben  yor gun    |  Bo şa  geç miş   |  se ne ler    | 
z2ef g2f2  | 
w:  Bo şa  geç miş   | 
z2ef d4  | e3d c2e2  | z2dc e4  | d3c B2d2  | \
w:  se ne ler    |  Ben de  hic ran   |  ya ra sı    |  Ben de  bit mez   | 
z2cB A4  | e3d c2e2  | 
w:  çi le ler    |  Ben de  hic ran   | 
z2dc e4  | d3c B2d2  | z2cB A4  | |


